flaticon/interaction/user-50.svg

<svg xmlns="http://www.w3.org/2000/svg" width="32" height="32" viewBox="0 0 24 24">
    <path d="M 23.855469 17.734375 C 22.429688 15.558594 20.527344 14.332031 18.476562 14.25 C 18.371094 14.238281 18.261719 14.230469 18.148438 14.230469 C 17.949219 14.230469 17.757812 14.25 17.570312 14.289062 C 15.707031 14.53125 13.988281 15.730469 12.679688 17.734375 L 12.488281 18.023438 L 12.636719 18.246094 C 14.109375 20.496094 16.09375 21.734375 18.222656 21.734375 C 20.351562 21.734375 22.335938 20.496094 23.8125 18.246094 L 24 17.957031 Z M 20.140625 17.03125 C 20.140625 18.128906 19.246094 19.023438 18.148438 19.023438 C 17.050781 19.023438 16.160156 18.128906 16.160156 17.03125 C 16.160156 16.082031 16.828125 15.285156 17.722656 15.089844 C 17.902344 15.066406 18.082031 15.054688 18.265625 15.054688 C 18.273438 15.054688 18.28125 15.054688 18.289062 15.054688 C 19.320312 15.128906 20.140625 15.980469 20.140625 17.03125 Z M 18.222656 20.925781 C 16.445312 20.925781 14.761719 19.894531 13.460938 18.019531 C 14.09375 17.09375 14.820312 16.371094 15.601562 15.871094 C 15.441406 16.222656 15.347656 16.617188 15.347656 17.03125 C 15.347656 18.574219 16.605469 19.832031 18.148438 19.832031 C 19.695312 19.832031 20.949219 18.574219 20.949219 17.03125 C 20.949219 16.539062 20.820312 16.074219 20.597656 15.671875 C 21.492188 16.160156 22.316406 16.933594 23.027344 17.957031 C 21.722656 19.871094 20.023438 20.925781 18.222656 20.925781 Z M 18.222656 20.925781"/>
    <path d="M 12.570312 13.675781 L 12.488281 13.582031 L 12.472656 13.566406 C 12.472656 13.5625 12.449219 13.53125 12.40625 13.480469 C 12.40625 13.476562 12.402344 13.472656 12.398438 13.46875 C 12.378906 13.441406 12.351562 13.40625 12.324219 13.367188 C 12.261719 13.28125 12.1875 13.171875 12.101562 13.042969 C 12.101562 13.039062 12.097656 13.035156 12.097656 13.03125 C 12.058594 12.96875 12.015625 12.902344 11.972656 12.832031 C 11.96875 12.824219 11.964844 12.820312 11.960938 12.816406 C 11.871094 12.660156 11.773438 12.488281 11.675781 12.296875 L 11.675781 12.292969 C 11.625 12.191406 11.574219 12.082031 11.523438 11.96875 C 11.515625 11.953125 11.507812 11.9375 11.5 11.921875 C 11.480469 11.871094 11.457031 11.816406 11.433594 11.761719 C 11.425781 11.742188 11.417969 11.722656 11.410156 11.703125 C 11.390625 11.648438 11.367188 11.597656 11.34375 11.535156 C 11.304688 11.425781 11.265625 11.308594 11.226562 11.191406 L 11.207031 11.117188 C 11.203125 11.109375 11.199219 11.101562 11.199219 11.09375 C 11.160156 10.964844 11.121094 10.835938 11.09375 10.699219 L 11.054688 10.539062 L 10.917969 10.449219 C 10.683594 10.296875 10.542969 10.042969 10.542969 9.769531 L 10.542969 8.148438 C 10.542969 7.921875 10.636719 7.710938 10.8125 7.550781 L 10.945312 7.429688 L 10.945312 4.761719 L 10.9375 4.753906 C 10.921875 4.460938 10.941406 3.5625 11.59375 2.816406 C 12.265625 2.050781 13.414062 1.660156 15 1.660156 C 16.585938 1.660156 17.730469 2.046875 18.402344 2.808594 C 19.191406 3.699219 19.058594 4.84375 19.058594 4.851562 L 19.054688 7.429688 L 19.191406 7.550781 C 19.363281 7.710938 19.460938 7.921875 19.460938 8.148438 L 19.460938 9.769531 C 19.460938 10.125 19.230469 10.433594 18.882812 10.539062 C 18.671875 10.605469 18.550781 10.832031 18.617188 11.046875 C 18.683594 11.261719 18.910156 11.378906 19.125 11.316406 C 19.8125 11.101562 20.273438 10.480469 20.273438 9.769531 L 20.273438 8.148438 C 20.273438 7.757812 20.125 7.378906 19.867188 7.085938 L 19.867188 4.925781 C 19.890625 4.703125 19.976562 3.378906 19.019531 2.28125 C 18.1875 1.332031 16.835938 0.851562 15 0.851562 C 13.167969 0.851562 11.816406 1.332031 10.984375 2.28125 C 10.402344 2.945312 10.207031 3.695312 10.148438 4.230469 C 9.453125 3.871094 8.632812 3.6875 7.703125 3.6875 C 3.492188 3.6875 3.246094 7.277344 3.242188 7.335938 L 3.242188 9.195312 C 2.980469 9.480469 2.839844 9.8125 2.839844 10.140625 L 2.839844 11.539062 C 2.839844 11.976562 3.035156 12.382812 3.371094 12.660156 C 3.703125 13.921875 4.527344 14.875 4.847656 15.207031 L 4.847656 16.320312 C 4.847656 16.640625 4.671875 16.933594 4.371094 17.097656 L 1.675781 18.789062 C 0.640625 19.351562 0 20.433594 0 21.609375 L 0 23.148438 L 10.945312 23.148438 C 11.171875 23.148438 11.351562 22.96875 11.351562 22.746094 C 11.351562 22.519531 11.171875 22.339844 10.945312 22.339844 L 6.488281 22.339844 L 6.488281 21.429688 C 6.488281 20.390625 7.054688 19.429688 7.96875 18.933594 L 11.585938 16.960938 C 12.191406 16.628906 12.570312 15.996094 12.570312 15.304688 Z M 11.757812 15.304688 C 11.757812 15.699219 11.542969 16.058594 11.199219 16.246094 L 10.125 16.832031 L 9.863281 16.976562 L 7.582031 18.21875 C 6.40625 18.863281 5.675781 20.089844 5.675781 21.429688 L 5.675781 22.339844 L 0.8125 22.339844 L 0.8125 21.609375 C 0.8125 20.730469 1.289062 19.921875 2.085938 19.488281 L 4.78125 17.796875 C 5.320312 17.5 5.65625 16.9375 5.65625 16.320312 L 5.65625 14.863281 L 5.527344 14.742188 C 5.519531 14.734375 4.441406 13.714844 4.121094 12.328125 L 4.085938 12.167969 L 3.945312 12.078125 C 3.761719 11.960938 3.648438 11.757812 3.648438 11.539062 L 3.648438 10.140625 C 3.648438 9.992188 3.75 9.820312 3.921875 9.664062 L 4.054688 9.542969 L 4.054688 7.359375 C 4.0625 7.246094 4.273438 4.5 7.703125 4.5 C 8.671875 4.5 9.492188 4.722656 10.136719 5.164062 L 10.136719 7.082031 C 9.875 7.378906 9.730469 7.757812 9.730469 8.148438 L 9.730469 9.769531 C 9.730469 9.894531 9.746094 10.015625 9.773438 10.132812 C 9.78125 10.179688 9.804688 10.222656 9.820312 10.265625 C 9.839844 10.335938 9.859375 10.40625 9.890625 10.46875 C 9.890625 10.472656 9.890625 10.472656 9.890625 10.472656 C 9.996094 10.6875 10.148438 10.878906 10.335938 11.03125 C 10.339844 11.039062 10.34375 11.046875 10.34375 11.050781 C 10.367188 11.144531 10.394531 11.238281 10.421875 11.328125 L 10.453125 11.433594 C 10.460938 11.453125 10.46875 11.472656 10.472656 11.488281 C 10.488281 11.535156 10.5 11.578125 10.515625 11.621094 C 10.539062 11.691406 10.566406 11.765625 10.59375 11.84375 C 10.609375 11.878906 10.621094 11.90625 10.632812 11.941406 C 10.667969 12.027344 10.699219 12.109375 10.734375 12.1875 C 10.746094 12.207031 10.75 12.230469 10.761719 12.25 L 10.78125 12.300781 C 10.792969 12.324219 10.804688 12.34375 10.816406 12.367188 C 10.855469 12.453125 10.894531 12.539062 10.933594 12.621094 C 10.941406 12.632812 10.945312 12.644531 10.953125 12.660156 C 10.976562 12.710938 11.003906 12.757812 11.03125 12.804688 C 11.074219 12.890625 11.117188 12.96875 11.160156 13.046875 C 11.179688 13.082031 11.199219 13.117188 11.222656 13.152344 C 11.28125 13.253906 11.335938 13.34375 11.390625 13.429688 C 11.402344 13.449219 11.414062 13.46875 11.425781 13.484375 C 11.523438 13.636719 11.605469 13.761719 11.679688 13.855469 C 11.695312 13.882812 11.710938 13.902344 11.730469 13.925781 C 11.738281 13.9375 11.75 13.953125 11.757812 13.964844 Z M 11.757812 15.304688"/>
</svg>

<svg xmlns="http://www.w3.org/2000/svg" width="32" height="32" viewBox="0 0 24 24">
    <path d="M23.855 17.734c-1.425-2.175-3.328-3.402-5.378-3.484a2.818 2.818 0 0 0-.906.04c-1.864.241-3.583 1.44-4.891 3.444l-.192.29.149.222c1.472 2.25 3.457 3.488 5.586 3.488 2.129 0 4.113-1.238 5.59-3.488l.187-.289zm-3.714-.703a1.996 1.996 0 0 1-1.993 1.992 1.99 1.99 0 1 1-.426-3.934c.18-.023.36-.034.544-.034h.023a1.988 1.988 0 0 1 1.852 1.976zm-1.918 3.895c-1.778 0-3.461-1.031-4.762-2.906.633-.926 1.36-1.649 2.14-2.149a2.8 2.8 0 0 0-.253 1.16c0 1.543 1.257 2.801 2.8 2.801a2.803 2.803 0 0 0 2.45-4.16c.894.488 1.718 1.262 2.43 2.285-1.305 1.914-3.005 2.969-4.805 2.969zm0 0"/>
    <path d="M12.57 13.676l-.082-.094-.015-.016a.597.597 0 0 0-.067-.086c0-.003-.004-.007-.008-.011l-.074-.102a10.217 10.217 0 0 1-.222-.324c0-.004-.004-.008-.004-.012l-.125-.199a11.61 11.61 0 0 1-.297-.535v-.004a8.58 8.58 0 0 1-.153-.324l-.023-.047-.066-.16-.024-.059c-.02-.055-.043-.105-.066-.168-.04-.11-.078-.226-.117-.344l-.02-.074c-.004-.008-.008-.015-.008-.023a4.17 4.17 0 0 1-.105-.395l-.04-.16-.136-.09a.811.811 0 0 1-.375-.68V8.15c0-.227.094-.438.27-.598l.132-.121V4.762l-.008-.008c-.015-.293.004-1.191.657-1.938.672-.765 1.82-1.156 3.406-1.156s2.73.387 3.402 1.149c.79.89.657 2.035.657 2.043l-.004 2.578.136.12c.172.16.27.372.27.598V9.77c0 .355-.23.664-.578.77a.407.407 0 0 0 .242.776 1.618 1.618 0 0 0 1.148-1.546V8.148c0-.39-.148-.77-.406-1.062v-2.16c.024-.223.11-1.547-.847-2.645-.832-.949-2.184-1.43-4.02-1.43-1.832 0-3.184.481-4.016 1.43a3.522 3.522 0 0 0-.836 1.95c-.695-.36-1.515-.543-2.445-.543-4.21 0-4.457 3.59-4.46 3.648v1.86c-.263.284-.403.617-.403.945v1.398c0 .438.195.844.531 1.121.332 1.262 1.156 2.215 1.477 2.547v1.113c0 .32-.176.614-.477.778l-2.695 1.691A3.207 3.207 0 0 0 0 21.61v1.54h10.945c.227 0 .407-.18.407-.403a.403.403 0 0 0-.407-.406H6.488v-.91c0-1.04.567-2 1.48-2.496l3.618-1.973a1.89 1.89 0 0 0 .984-1.656zm-.812 1.629c0 .394-.215.754-.559.941l-1.074.586-.262.145-2.281 1.242a3.659 3.659 0 0 0-1.906 3.21v.91H.812v-.73c0-.879.477-1.687 1.274-2.12l2.695-1.692c.54-.297.875-.86.875-1.477v-1.457l-.129-.12c-.007-.009-1.086-1.028-1.406-2.415l-.035-.16-.14-.09a.641.641 0 0 1-.298-.539v-1.398c0-.149.102-.32.274-.477l.133-.121V7.359c.008-.113.218-2.859 3.648-2.859.969 0 1.79.223 2.434.664v1.918a1.614 1.614 0 0 0-.407 1.066V9.77c0 .125.016.246.043.363.008.047.032.09.047.133.02.07.04.14.07.203v.004c.106.214.258.406.446.558a.066.066 0 0 1 .008.02c.023.094.05.187.078.277l.031.106c.008.02.016.039.02.054.015.047.027.09.043.133.023.07.05.145.078.223.015.035.027.062.039.097.035.086.066.168.101.246.012.02.016.043.028.063l.02.05c.011.024.023.044.034.067l.118.254.02.04c.023.05.05.097.077.144.043.086.086.164.13.242.019.035.038.07.062.105.058.102.113.192.168.278a4.854 4.854 0 0 0 .29.426.46.46 0 0 0 .05.07l.027.039zm0 0"/>
</svg>
